X:1
T:Lucretia mia
T:Lucretia mia
T:Theodorico Sistino
T:Source : Cantiones trium vocum---Hamburgi---P.ab Ohr---1608. Editor : André Vierendeels (02/02/14).
C:Theodorico Sistino
%%score [ 1 2 3 ]
L:1/8
Q:1/4=80
M:4/4
K:F
V:1 treble nm="Soprano 1" snm="S 1"
V:2 treble nm="Soprano 2" snm="S 2"
V:3 treble-8 nm="Tenor" snm="T"
V:1
 g4 f2 e2 | d3 e f2 g2 | f2 d2 c2 B2 | A3 B c2 d2 | c6 B2 | A4 A2 f2 | d2 B2 c2 e2 | z2 f2 d2 B2 | %8
w: Lu- cre- tia|mi- * * *|a, Lu- cre- tia|mi- * a, Lu-|cre- tia|mi- a, Lu-|cre- tia mi- a,|Lu- cre- tia|
 A4 B4 | z2 d2 f2 d2 | g2 e2 f2 d2 | z2 c3 d e2 | e2 d2 f2 e2 | g3 f/e/ d2 g2 | fe dc B2 _e2 | %15
w: mi- a,|quel- le tue|trec- cie d'o- ro,|quel- * *|le tue trec- cie|d'o- * * ro, quel-|le _ _ _ _ tue|
 d3 c/B/ A2 B2 | A2 G2 A4 | =B4 z2 d2 | d2 d3 d e2 | d2 c2 d4 | c2 g2 f2 d2- | dA B2 A4 | %22
w: trec- * * * cie|d'o- * *|ro, e|quel gl'oc- chi di|so- le con|le dol- ce pa-|* * * ro-|
[M:2/4] G4 ::[M:4/4] z2 d2 d4 | d4 _e4 | d2 d2 ^c2 d2 | GA Bc d4- | d8 | z4 g4 | ^f2 g2 cd ef | %30
w: le,|son le|ca- ter-|ne, son le ca-|ter- * * * ne,|_|son|le ca- ter- * * *|
 g4 z2 d2 | _e2 e2 ec d2 | c2 f2 e2 ^f2 | g3 f/e/ d2 f2 | fe dc Bc d2 | d4 d4- |"^b" d4 ef gf | %37
w: ne, son|le ca- ter- * *|ne, son le ca-|ter- * * ne ond'|io _ _ _ _ _ le-|ga- to|_ mo- * * *|
 _ed cB A4 | B4 A4- |1 A4 =B4 :|2 A4 =B4- || B8 |] %42
w: ||* ro,|(mo)- ro.|_|
V:2
 z8 | z2 G2 F2 E2 | D3 E FD G2- | G2 ^F2 G4 | z2 A2 G2 F2 | E4 D3 E |"^-natural" F2 G2 AB ^c2 | %7
w: |Lu- cre- tia|mi- * * * *|* * a,|Lu- cre- tia|mi- a, Lu-|cre- tia mi- * *|
"^-natural" d3 c/B/ A2 G2 | D4 z2 G2 | A2 B2 c2 A2 | ^c4 d4 | c2 A4 G2 | c2 d4 ^c2 | d8 | %14
w: |a, quel-|le tue- trec- cie|d'o- ro,|quel- le tue|trec- cie d'o-|ro,|
 z2 A2 G2 c2 | A2 d2 D3 E | ^F2 G4 F2 |"^b" G4 z2 B2 | A2 =B3 B c2 | =B2 c4 B2 | c2 _e2 d2 B2- | %21
w: quel- le trec-|* cie d'o- *||ro, e|quel gl'oc- chi di|so- le con|le dol- ce pa-|
 BA G4 ^F2 |[M:2/4] G4 ::[M:4/4] z2 B4 A2- | A2 =B2 c4 | =B2 B2 A2 GF | E2 G2 z2 A2 | B2 A2 B4 | %28
w: * * ro- *|le,|son le|_ ca- ter-|ne, son le ca- *|ter- ne, son|le ca- ter-|
 A3 G/F/ E4 | z2 G2 AB cd | e2 d2 d2 =B2 | z2 c2 c2 B2 | A8 | B4 z2 d2 | dc BA G2 A2 | %35
w: * * * ne,|son le _ _ _|_ ca- ter- ne|son le ca-|ter-|ne, on-|d'io _ _ _ _ le-|
 Bc dc B2 AG | ^F2 AB cd _ed | cB AG ^F4 |"^#" G6 FE |1 ^F4 G4 :|2 ^F4 G4- || G8 |] %42
w: ga- * * * * * *|to mo- * * * * *|||* ro,|(mo)- ro.|_|
V:3
 z8 | z8 | z8 | d4 c2 B2 | A3 B cA d2- | d2 ^c2 d4 | z2 G2 F2 E2 | D3 E FD G2- | G2 ^F2 G4 | %9
w: |||Lu- cre- tia|mi- * * * *|* * a,|Lu- cre- tia|mi- * * * *|* * a,|
 z2 G2 F4 | E4 D3 E | FG A3 B c2- | c2 B2 A4 | G8 | z2 D2 _E2 C2 | D3 E ^F2 G2 | D8 | G4 z2 G2 | %18
w: quel- le|tue trec- *||* cie d'o-|ro,|quel- le tue|trec- * * cie|d'o-|ro, e|
 ^F2 G3 G C2 | G8 |"^-natural" C2 C2 D3 E | ^F2 G2 D4 |[M:2/4] G4 ::[M:4/4] G6 ^F2- | F2 G2 CDE^F | %25
w: quel gl'oc- chi di|so-|le dol- ce- pa-|ro- * *|le,|son le|_ ca- ter- * * *|
 G4 z2 B2 | c2 G2 ^F4 | G2 D2 B,C DE | F3 E/D/ C4 | z8 | z2 G2 ^F2 G2 |"^b" CD EF G4 | %32
w: ne, son|le ca- ter-|ne, ca- ter- * * *|* * * ne,||son le ca-|ter- * * * ne,|
 z2 d2 ^c2 d2 | GA Bc d4 | z2 G2 G2 ^F2 | GA BA G2 FE | D4 C4- | C4 D4- | D8- |1 D4 G4 :|2 %40
w: son le ca-|ter- * * * ne,|on- d'io le-|ga- * * * * * *|to mo-|||* ro,|
 D4 G4- || G8 |] %42
w: (mo)- ro.|_|

